X:1     %Music
T:Auld Wife of Coverdill
B:Journal of the English Folk Dance Society, 1928, Oxford University Press, London
Z:Rev. John Tinker, vicar of Cauton, Notts, 1826
M:4/4     %Meter
L:1/8     %
K:F
C2 |F3 A G2 E2 |F6 A2 |B3 d c3 A | G6
w:The first that doth come in Is fer-ly to be seen
A2 |B3 c d3 B |A6 F2 |B2 A2 G3 E | F6  |]
w:He con-quered Gi-ant Strong Be-fore he was six-teen. 